X:1
T:His Keeping Power
T:His Keeping Power
T:Thomas Bryan Weaver
T:Annie Ruddick, 1878
T:Public Domain Courtesy of the Cyber Hymnal™
C:Thomas Bryan Weaver
Z:Public Domain
Z:Courtesy of the Cyber Hymnal™
%%score ( 1 2 ) ( 3 4 )
L:1/8
Q:1/4=105
M:9/8
K:Ab
V:1 treble 
V:2 treble 
V:3 bass 
V:4 bass 
V:1
 ([CE][A,C])[CE] | [Ec]3- [Ec]2 [Ec] ([DB][Ec])[DB] | [CA]6 [EA]2 [EA] | %3
w: 1.~Sav- * ior,|fold * me in * Thy|arms, Keep me|
w: 2.~Keep * me|hum- * ble at * Thy|feet, Al- ways|
w: 3.~Know- * est|Thou * my pains * and|fears; Lord, Thou|
w: 4.~Sav- * ior,|al- * ways be * my|guide, While on|
 [FA]3- [FA]2 [EA] ([FA][=EG])[FA] | [GB]6 ([Ac][GB])[_Gc] | [Fd]3- [Fd]2 [Fd] (dc)[EB] | %6
w: safe * from earth’s * a-|larms; Keep * me|washed * in Je- * sus’|
w: for * Thy use * made|meet; May * I,|Sav- * ior, find * in|
w: se- * est all * my|tears; Lov- * ing|Sav- * ior, meek * and|
w: life’s * un- ev- * en|tide; Guide * me|to * the streets * of|
 [Ec]6 (cB)A | [GB]3- [GB]2 [Ac] (BA)[DF] | [CE]6 |:"^Refrain" [Ae]2 [Ae] | %10
w: blood— Keep * me|in * the crim- * son|flood.||
w: Thee, Re- * fuge,|fa- * vor, lib- * er-|ty.||
w: mild, Thou * dost|guide * Thy lov- * ing|child.||
w: gold, Safe- * ly|housed * with- in * Thy|fold.||
 [Ae]3- [Ae]2 [Ae] [Ed][Ec][DB] | [CA]3- [CA]2 [FA] [FA][E=G][FA] |1 %12
w: ||
w: ||
w: ||
w: ||
 [GB]3- [GB]2 [GB] [AB][Ac][A=d] | [Ge]6 :|2 [GB]3- [GB]2 E [DE][DF][DG] || [CA]6 |] %16
w: ||||
w: ||||
w: ||||
w: ||||
V:2
 x3 | x9 | x9 | x9 | x9 | x6 E2 x | x6 A2 A | x6 F2 x | x6 |: x3 | x9 | x9 |1 x9 | x6 :|2 %14
 x5 E x3 || x6 |] %16
V:3
 [A,,A,]2 [A,,A,] | [A,,A,]3- [A,,A,]2 [A,,A,] [E,G,]2 [E,G,] | [A,,A,]6 [A,,C]2 [A,,C] | %3
w: |||
 [D,D]3- [D,D]2 [A,,C] [F,C]2 [F,C] | [E,E]6 [A,,A,]2 [A,,A,] | %5
w: ||
 [D,A,]3- [D,A,]2 [D,F,] (B,A,)[E,G,] | [A,,A,]6 (ED)[A,,C] | [E,E]3- [E,E]2 [A,,E] [D,D]2 [D,A,] | %8
w: |||
 [A,,A,]6 |: [A,C]2 [A,C] | [A,C]3- [A,C]2 [A,C] [G,B,]A,[E,G,] | %11
w: |Sweet- ly|saved! * all hail to the|
 [F,A,]3- [F,A,]2 [F,C] [F,C][C,C][F,C] |1 [E,E]3- [E,E]2 [E,B,] B,B,B, | [E,B,]6 :|2 %14
w: Lamb! * All glo- ry and|praise * to Je- sus be|giv’n,|
 [E,E]3- [E,E]2 [E,C] [E,B,][E,B,][E,B,] || [A,,A,]6 |] %16
w: praise * to Je- sus be|giv’n!|
V:4
 x3 | x9 | x9 | x9 | x9 | x6 E,2 x | x6 A,,2 x | x9 | x6 |: x3 | x7 A, x | x9 |1 x6 B,B,B, | x6 :|2 %14
 x9 || x6 |] %16

